X: 29898
T: O'Neill's Maggot
R: jig
M: 6/8
K: Dmajor
M:12/8
|:A|d2 e f2 e dcd BdB|A2 F d2 F EFE E2 A|
d2 e f2 e dcd B/c/dB|A^GA dAF DED D2:|
|:A|DCD A2 F DED A2 F|E^DE B2 G EFE B2 G|
DCD A2 F DED A2 F|GFE A2 F DED D2:|
|:f|a3 a2 f a3 a2 f|g2 e B2 e g2 e b2 e|
a3 a2 f a3 a2 g|fed edc ded d2:|

